X: 25321
T: Mangersta Beach
R: reel
M: 4/4
K: Amajor
EAB|cEAc B2A(A|A)B(c2 c)Eag|f2ef e2fa|B2AB cEAB|
cEAc B2A(A|A)B(c2 c)Eag|f2ec B2AB|cEAB F4:|
|:FEF|B2AB c2a(a|a)ggf feef|B2AB BcE(A|A)B/A/ GA F2 EF|
BABc AEG(A|A)B/A/ GA FEFA|dcA(E E)FAB|cEAB F4:|

